X: 42729
T: Whistling Rufus
R: barndance
M: 4/4
K: Gmajor
|:G2 GB d2 de|g2 g2 e d3|G2GA BAG2|d4-d4|
G2 GB d2 de|g2 g2 e d3|a2 aa ag e2|a4-a4|
G2GB d2de|g2g2 ed3|G2GA BAG2|d6 g2|
e g2 e d2 ed|B2 G2 AGED|G B2 G AG A2|1 G2 z2 g2 z2:|2 G2 B2 F2 G2||
|:d4 d4-|d2 e2 d2 G2|F4 F4-|F2 c2 ^G2 A2|
e4 e4-|e2 f2 e2 c2|B4 B4-|B2 B2 F2 G2|
d4 d4-|d2 e2 d2 G2|c4 c4-|c2 d2 c2 G2|
B4 c2 B2|E4 F4|1 G8-|G2 B2 F2 G2:|2 G8-|G4 g2 z2||
G2 GB d2 de|g2 g2 e d3|G2 GA BA G2|d4-d4|
G2 GB d2 de|g2 g2 e d3|a2 aa ag e2|a4-a4|
G2 GB d2 de|g2 g2 e d3|G2 GA BA G2|d6 g2|
e g2 e d2 ed|B2 G2 AGED|G B2 G AG A2|G2 z2 g2 z2|
K:C
|:c6 d2|e6 g2|a3 b a3 b|a2 g2 e2 c2|
d3 e d3 e|d2 A2 B2 c2|d3 e d3 e|d2 B2 A2 G2|
c6 d2|e6 g2|a3 b a3 b|a2 g2 e2 c2|
d3 e d3 e|d2 A2 B2 c2|1 d4-d4|c4 G4:|2 d4-d4|c2 e2 B2 c2||
|:g4 g4-|g2 a2 g2 c2|B4 B4-|B2 f2 ^c2 d2|
a4 a4-|a2 b2 a2 f2|e4 e4-|e2 e2 B2 c2|
g4 g4-|g2 a2 g2 c2|f4 f4-|f2 g2 f2 c2|
e4 f2 e2|A4 B4|1 c4-c4-c2 e2 B2 c2:|2 c4-c4-|c4 c'2 z2||

